build/img/four_benefits/slider/1/num.svg

<svg width="80" height="80" viewBox="0 0 80 80" fill="none" xmlns="http://www.w3.org/2000/svg">
<g clip-path="url(#clip0_2_469)">
<path fill-rule="evenodd" clip-rule="evenodd" d="M32.8133 0.32351C50.1855 -1.01986 70.4029 1.25978 76.8945 17.9704C84.5083 37.5696 77.7115 60.7266 60.9975 72.8747C44.9727 84.5218 22.929 81.1793 8.04953 68.0083C-4.02564 57.3196 -0.392051 38.8825 5.23157 23.512C9.86627 10.8443 19.7478 1.33384 32.8133 0.32351Z" fill="#EF7F1A"/>
<path d="M32.2 47.216C30.232 47.216 28.728 46.472 27.688 44.984C26.664 43.48 26.152 41.328 26.152 38.528C26.152 36.624 26.384 35.032 26.848 33.752C27.312 32.472 27.992 31.504 28.888 30.848C29.784 30.192 30.888 29.864 32.2 29.864C34.184 29.864 35.688 30.6 36.712 32.072C37.736 33.528 38.248 35.672 38.248 38.504C38.248 40.376 38.016 41.96 37.552 43.256C37.088 44.552 36.408 45.536 35.512 46.208C34.616 46.88 33.512 47.216 32.2 47.216ZM32.2 45.152C33.432 45.152 34.336 44.616 34.912 43.544C35.504 42.456 35.8 40.776 35.8 38.504C35.8 36.216 35.504 34.552 34.912 33.512C34.336 32.456 33.432 31.928 32.2 31.928C30.984 31.928 30.08 32.456 29.488 33.512C28.896 34.552 28.6 36.216 28.6 38.504C28.6 40.776 28.896 42.456 29.488 43.544C30.08 44.616 30.984 45.152 32.2 45.152ZM43.1106 47C42.7746 47 42.5106 46.904 42.3186 46.712C42.1266 46.52 42.0306 46.264 42.0306 45.944C42.0306 45.608 42.1266 45.352 42.3186 45.176C42.5106 45 42.7746 44.912 43.1106 44.912L46.0386 44.912L46.0386 32.144L47.2866 32.144L43.7826 34.376C43.5266 34.52 43.2866 34.576 43.0626 34.544C42.8546 34.512 42.6706 34.424 42.5106 34.28C42.3666 34.136 42.2626 33.96 42.1986 33.752C42.1506 33.544 42.1666 33.328 42.2466 33.104C42.3426 32.88 42.5106 32.696 42.7506 32.552L46.0626 30.464C46.3346 30.304 46.5906 30.176 46.8306 30.08C47.0866 29.968 47.3266 29.912 47.5506 29.912C47.8226 29.912 48.0466 29.992 48.2226 30.152C48.4146 30.296 48.5106 30.544 48.5106 30.896L48.5106 44.912L51.1986 44.912C51.5506 44.912 51.8226 45 52.0146 45.176C52.2066 45.352 52.3026 45.608 52.3026 45.944C52.3026 46.28 52.2066 46.544 52.0146 46.736C51.8226 46.912 51.5506 47 51.1986 47L43.1106 47Z" fill="white"/>
</g>
<defs>
<clipPath id="clip0_2_469">
<rect width="80" height="80" fill="white"/>
</clipPath>
</defs>
</svg>

<svg width="80" height="80" fill="none" xmlns="http://www.w3.org/2000/svg"><g clip-path="url(#a)"><path fill-rule="evenodd" clip-rule="evenodd" d="M32.813.324c17.372-1.344 37.59.936 44.081 17.646 7.614 19.6.817 42.757-15.897 54.905C44.974 84.522 22.93 81.179 8.05 68.008-4.026 57.32-.392 38.883 5.232 23.512 9.866 10.844 19.748 1.334 32.813.324Z" fill="#EF7F1A"/><path d="M32.2 47.216c-1.968 0-3.472-.744-4.512-2.232-1.024-1.504-1.536-3.656-1.536-6.456 0-1.904.232-3.496.696-4.776.464-1.28 1.144-2.248 2.04-2.904.896-.656 2-.984 3.312-.984 1.984 0 3.488.736 4.512 2.208 1.024 1.456 1.536 3.6 1.536 6.432 0 1.872-.232 3.456-.696 4.752-.464 1.296-1.144 2.28-2.04 2.952-.896.672-2 1.008-3.312 1.008Zm0-2.064c1.232 0 2.136-.536 2.712-1.608.592-1.088.888-2.768.888-5.04 0-2.288-.296-3.952-.888-4.992-.576-1.056-1.48-1.584-2.712-1.584-1.216 0-2.12.528-2.712 1.584-.592 1.04-.888 2.704-.888 4.992 0 2.272.296 3.952.888 5.04.592 1.072 1.496 1.608 2.712 1.608ZM43.11 47c-.335 0-.6-.096-.791-.288-.192-.192-.288-.448-.288-.768 0-.336.096-.592.288-.768.192-.176.456-.264.792-.264h2.928V32.144h1.248l-3.504 2.232c-.256.144-.496.2-.72.168a1.048 1.048 0 0 1-.552-.264 1.255 1.255 0 0 1-.312-.528 1.136 1.136 0 0 1 .048-.648 1.19 1.19 0 0 1 .504-.552l3.312-2.088c.272-.16.528-.288.768-.384.256-.112.496-.168.72-.168a.96.96 0 0 1 .672.24c.192.144.288.392.288.744v14.016h2.688c.352 0 .624.088.816.264.192.176.288.432.288.768s-.096.6-.288.792c-.192.176-.464.264-.816.264H43.11Z" fill="#fff"/></g><defs><clipPath id="a"><path fill="#fff" d="M0 0h80v80H0z"/></clipPath></defs></svg>
